picto/luggage-stowage.svg

<svg class="color-immutable" width="24" height="24" viewBox="0 0 24 24" fill="none" xmlns="http://www.w3.org/2000/svg"><g clip-path="url(#a)"><path d="M0 22.5v-21C0 .675.675 0 1.5 0h21c.825 0 1.5.675 1.5 1.5v21c0 .825-.675 1.5-1.5 1.5h-21C.675 24 0 23.325 0 22.5Z" fill="#2D327D"/><path d="M11.799 12.254h.42a.09.09 0 0 0 .09-.09v-.93a.3.3 0 0 0-.3-.3.3.3 0 0 0-.3.3v.93c0 .05.04.09.09.09ZM12.234 12.494v7.591c0 .049.041.09.09.09h1.034a.347.347 0 0 0 .334-.303s.157-1.408.157-3.583c0-2.174-.157-3.582-.157-3.582a.348.348 0 0 0-.334-.303h-1.034a.09.09 0 0 0-.09.09ZM10.326 12.707s-.157 1.408-.157 3.582.157 3.583.157 3.583a.348.348 0 0 0 .334.303h1.034c.05 0 .09-.04.09-.09v-7.591a.09.09 0 0 0-.09-.09H10.66a.348.348 0 0 0-.334.303ZM21 20.7H3v.3h18v-.3ZM15.477 17.284c.158.12.354.191.568.191h4.505c.248 0 .45-.203.45-.45V15.9a.451.451 0 0 0-.45-.45h-3.79l-.643-2.025 3.331.001a.637.637 0 1 0 0-1.274l-3.736-.002-1.538-4.874h-1.5l2.469 9.525a.954.954 0 0 0 .334.483Zm-1.522-9.709 1.538 4.874 3.956.002a.337.337 0 0 1 0 .675l-3.741-.001.833 2.625h4.009c.081 0 .15.069.15.15v1.125c0 .081-.069.15-.15.15h-4.505a.633.633 0 0 1-.386-.13.652.652 0 0 1-.226-.325l-2.371-9.145h.893ZM14.167 6.825l.803-.876c.168-.176.18-.288.18-.45V3.45A.45.45 0 0 0 14.7 3h-1.575a.45.45 0 0 0-.45.45v3.375h1.492ZM13.125 3.3H14.7a.15.15 0 0 1 .15.15V5.5c0 .113 0 .14-.099.244l-.716.781h-1.06V3.45a.15.15 0 0 1 .15-.15ZM3.45 17.475h4.505a.934.934 0 0 0 .901-.675l2.469-9.525h-1.5l-1.538 4.874-3.736.002a.638.638 0 1 0 0 1.274l3.331-.001-.643 2.026H3.45a.451.451 0 0 0-.45.45v1.125c0 .247.202.45.45.45ZM3.3 15.9c0-.081.069-.15.15-.15h4.009l.833-2.625-3.741.001a.337.337 0 1 1 .001-.675l3.956-.002 1.538-4.874h.893L8.566 16.72a.635.635 0 0 1-.612.455H3.45a.152.152 0 0 1-.15-.15V15.9ZM9.833 6.825h1.492V3.45a.45.45 0 0 0-.45-.45H9.3a.45.45 0 0 0-.45.45v2.049c0 .162.011.273.18.45l.803.876ZM9.15 3.45a.15.15 0 0 1 .15-.15h1.575a.15.15 0 0 1 .15.15v3.075h-1.06l-.716-.781C9.15 5.64 9.15 5.613 9.15 5.5V3.45Z" fill="#fff"/></g><defs><clipPath id="a"><path fill="#fff" d="M0 0h24v24H0z"/></clipPath></defs></svg>

<svg class="color-immutable" width="24" height="24" viewBox="0 0 24 24" fill="none" xmlns="http://www.w3.org/2000/svg"><path d="M0 22.5V1.5C0 0.675 0.675 0 1.5 0H22.5C23.325 0 24 0.675 24 1.5V22.5C24 23.325 23.325 24 22.5 24H1.5C0.675 24 0 23.325 0 22.5Z" fill="#2D327D"/><path d="M11.799 12.254H12.219C12.269 12.254 12.309 12.213 12.309 12.164V11.234C12.309 11.069 12.174 10.934 12.009 10.934C11.844 10.934 11.709 11.069 11.709 11.234V12.164C11.709 12.214 11.749 12.254 11.799 12.254Z" fill="white"/><path d="M12.234 12.494V20.085C12.234 20.134 12.275 20.175 12.324 20.175H13.358C13.523 20.175 13.673 20.039 13.692 19.872C13.692 19.872 13.849 18.464 13.849 16.289C13.849 14.115 13.692 12.707 13.692 12.707C13.673 12.541 13.523 12.404 13.358 12.404H12.324C12.274 12.404 12.234 12.445 12.234 12.494Z" fill="white"/><path d="M10.326 12.707C10.326 12.707 10.169 14.115 10.169 16.289C10.169 18.463 10.326 19.872 10.326 19.872C10.345 20.038 10.495 20.175 10.66 20.175H11.694C11.744 20.175 11.784 20.135 11.784 20.085V12.494C11.784 12.445 11.744 12.404 11.694 12.404H10.66C10.495 12.404 10.345 12.541 10.326 12.707Z" fill="white"/><path d="M21 20.7H3V21H21V20.7Z" fill="white"/><path d="M15.477 17.284C15.635 17.404 15.831 17.475 16.045 17.475H20.55C20.798 17.475 21 17.272 21 17.025V15.9C21 15.653 20.798 15.45 20.55 15.45H16.76L16.117 13.425L19.448 13.426C19.8 13.426 20.085 13.141 20.085 12.789C20.085 12.437 19.8 12.152 19.448 12.152L15.712 12.15L14.174 7.276H12.674L15.143 16.801C15.201 16.995 15.32 17.164 15.477 17.284ZM13.955 7.575L15.493 12.449L19.449 12.451C19.635 12.451 19.786 12.602 19.786 12.789C19.786 12.975 19.635 13.126 19.449 13.126L15.708 13.125L16.541 15.75H20.55C20.631 15.75 20.7 15.819 20.7 15.9V17.025C20.7 17.106 20.631 17.175 20.55 17.175H16.045C15.904 17.175 15.771 17.13 15.659 17.045C15.552 16.963 15.472 16.848 15.433 16.72L13.062 7.575H13.955Z" fill="white"/><path d="M14.167 6.825L14.97 5.949C15.138 5.773 15.15 5.661 15.15 5.499V3.45C15.15 3.202 14.948 3 14.7 3H13.125C12.877 3 12.675 3.202 12.675 3.45V6.825H14.167ZM13.125 3.3H14.7C14.783 3.3 14.85 3.367 14.85 3.45V5.5C14.85 5.613 14.85 5.64 14.751 5.744L14.035 6.525H12.975V3.45C12.975 3.367 13.042 3.3 13.125 3.3Z" fill="white"/><path d="M3.45 17.475H7.955C8.169 17.475 8.365 17.404 8.523 17.284C8.68 17.164 8.799 16.995 8.856 16.8L11.325 7.27502H9.825L8.287 12.149L4.551 12.151C4.199 12.151 3.913 12.436 3.913 12.788C3.913 13.14 4.198 13.425 4.551 13.425L7.882 13.424L7.239 15.45H3.45C3.202 15.45 3 15.653 3 15.9V17.025C3 17.272 3.202 17.475 3.45 17.475ZM3.3 15.9C3.3 15.819 3.369 15.75 3.45 15.75H7.459L8.292 13.125L4.551 13.126C4.365 13.126 4.214 12.975 4.214 12.789C4.214 12.603 4.365 12.451 4.552 12.451L8.508 12.449L10.046 7.57502H10.939L8.566 16.72C8.528 16.848 8.448 16.964 8.34 17.045C8.228 17.13 8.095 17.175 7.954 17.175H3.45C3.369 17.175 3.3 17.106 3.3 17.025V15.9Z" fill="white"/><path d="M9.83298 6.825H11.325V3.45C11.325 3.202 11.123 3 10.875 3H9.29998C9.05198 3 8.84998 3.202 8.84998 3.45V5.499C8.84998 5.661 8.86097 5.772 9.02997 5.949L9.83298 6.825ZM9.14997 3.45C9.14997 3.367 9.21698 3.3 9.29998 3.3H10.875C10.958 3.3 11.025 3.367 11.025 3.45V6.525H9.96498L9.24897 5.744C9.14997 5.64 9.14997 5.613 9.14997 5.5V3.45Z" fill="white"/></svg>
